X: 482
T: BELLADRUM
C: CAPt FRASER
R: Strathspey (S.F.)
N: What does "(S.F.)" mean here?
B: Glen Collection p.48 #2
Z: 2011 John Chambers <jc:trillian.mit.edu>
M: C
L: 1/8
V: 1 clef=treble middle=B
V: 2 clef=bass middle=d
%%score {1 | 2}
K: Em
%
V: 1
B |\
E/E/E E>F G>A B<d | D/D/D AD FD AF | E/E/E E>F G>A BG |B,E E>^D E2 E :|
e/f/ |\
g>e f<^d e<B e2 | {^c}~d>B Ad FD AF | e>f ed B^d ef | g>e B^d {d}e2 Be/f/ |
g<e f<d e<B e2 | f<^c d>A F>D Af | gd eB dG AB | G<E B,>^D E2 E |]
%
V: 2
z |\
e2[b2g2] G2[g2d2] | d2[a2f2] A2[f2d2] |\
e2[b2g2] G2[g2d2] | [g2e2][a2f2] [b2g2e2][bge] :|
z |\
e2[c'2a2] [b2g2][g2e2] | f2f2 a2f2 |\
e2[b2g2] g2f2 | e2[a2f2] e2[b2g2] |
e2[c'2a2] [b2g2][g2e2] | d2[a2f2] A2[a2f2] |\
G2[b2g2] B2[g2d2] | g2f2 e2[bge] |]
